X:0391
M:2/4
L:1/16
Q:1/4=108
K:D
dfed ecBA|efge fdAF|GBeG  FAdF|EFGA GFED|
dfed ecBA|efge fedc|dfA^c dgfe|fdec d4 :|

